**kern
*>[A,A]
*>norep[A]
*>A
=1-
*clefG2
*k[f#c#g#]
*M2/4
{8a/
8g#
8f#
8e
=2
8.a/
16b/
4cc#
=3
8ee
8b
8cc#
8b
=4
8a/
8g#
8f#
8e}
=5
{8e
8cc#
8b
8cc#
=6
8.e
16f#
8a
8a
=7
8b
8g#
16f#
16e
8f#
=8
8b
8g#
16f#
16e
8f#
=9
8.a
16b
4cc#
=10
8ee
8b
8cc#
8b
=11
8a/
8g#
8f#
8e}
=12
{8e
8cc#
8b
8cc#
=13
8.e
16f#
8a
8a
=14
8b
8g#
16f#
16e
8f#
=15
8b
8g#
16f#
16e
8f#
=|}
*-